X:10
T:Waynu
R:waynu
O:Bolivia?
Z:id:hn-waynu-10
M:2/4
L:1/8
Q:1/4=90
K:Em
[M:3/4] B/ee/ ee/dc/B |[M:2/4] A/AG/ A>F | G/BB/ B/BA/ | GF/EF/G |
E/e/B/e/ Be :||: GB G/GG/ | FA G2 | G/BB/ B/BA/ | GF/EF/G |
[1 E/e/B/e/ Be :|2 E3/edB/ |: A/AG/ A>F | G/BB/ B/BA/ | GF/EF/G |
[1 E3/edB/ :|2 E/e/B/e/ Be ||

